X:1
T:Eternity Is Drawing Nigh
T:Eternity Is Drawing Nigh
T:Philip Phillips
T:Horatius Bonar, 1877
T:Public Domain Courtesy of the Cyber Hymnal™
T:Public Domain Courtesy of the Cyber Hymnal™
C:Philip Phillips
Z:Public Domain
Z:Courtesy of the Cyber Hymnal™
%%score ( 1 2 ) ( 3 4 )
L:1/8
Q:1/4=115
M:2/2
K:F
V:1 treble 
V:2 treble 
V:3 bass 
V:4 bass 
V:1
 [CF]4 [CF]2 [CE]2 | [CF]6 [CG]2 | [FA]6 [EG]2 | [FA]2 [Ac]6 | [Ac]4 [Ac]2 [^G=B]2 | [Ac]6 [Fc]2 | %6
w: 1.~Pray, breth- ren,|pray, The|sands are|fall- ing,|Pray, breth- ren,|pray, God’s|
w: 2.~Praise, breth- ren,|praise, The|skies are|rend- ing;|Praise, breth- ren,|praise, The|
w: 3.~Watch, breth- ren,|watch, The|day is|dy- ing;|Watch, breth- ren,|watch, The|
w: 4.~Look, breth- ren,|look, The|day is|break- ing;|Look, breth- ren,|look, The|
 [Fd]6 [Fc]2 | [FA]2 [Fc]4 z [Ac] | [Ac]3 [FA] [EB]3 [EG] | [FA]3 F !fermata![EG]3 [Ac] | %10
w: voice is|call- ing. Yon|tur- ret strikes the|dy- ing chime; We|
w: fight is|end- ing, Be-|hold! the glo- ry|draw- eth near, The|
w: time is|fly- ing. Watch|as men watch the|part- ing breath, Watch|
w: dead are|wak- ing. With|gird- ed loins al-|rea- dy stand— Be-|
 [Ac]3 [FA] [EB]3 [EG] | [FA]3 F !fermata![EG]3 ||"^Refrain" C | [CF]3 [CF] [CF]2 [EG]2 | %14
w: kneel up- on the|edge of time.|||
w: King Him- self will|soon ap- pear.|||
w: as men watch for|life or death.|E-|ter- ni- ty is|
w: hold! the Bride- groom|is at hand.|||
 [FA]2 [FB]2 [Ec]3 [Ec] | (c4 A2) [Fd]2 | [Fc]6 z [FA] | ([FA]4 [CF]2) [FB]2 | [FA]6 z [CF] | %19
w: |||||
w: |||||
w: draw- ing nigh, E-|ter- * ni-|ty, e-|ter- * ni-|ty, E-|
w: |||||
 F6 [_EF]2 | [DF]6 [FG]2 | [FA]4 G4 | [CF]8 |] %23
w: ||||
w: ||||
w: ter- ni-|ty is|draw- ing|nigh.|
w: ||||
V:2
 x8 | x8 | x8 | x8 | x8 | x8 | x8 | x8 | x8 | x3 F x4 | x8 | x3 F x3 || C | x8 | x8 | F6 x2 | x8 | %17
 x8 | x8 | (C4 D2) x2 | x8 | x4 (E2 C2) | x8 |] %23
V:3
 [F,A,]4 [F,A,]2 [C,G,]2 | [F,A,]6 [F,B,]2 | [F,C]6 [C,C]2 | [F,C]2 [F,C]6 | [F,C]4 [F,C]2 [F,D]2 | %5
 [F,C]6 [F,A,]2 | [F,B,]6 [F,A,]2 | [F,C]2 [F,A,]4 z [F,C] | [F,C]3 [F,C] [C,C]3 [C,C] | %9
 [F,C]3 [A,,C] !fermata![C,C]3 [F,C] | [F,C]3 [F,C] [C,C]3 [C,C] | [F,C]3 [A,,C] !fermata![C,C]3 || %12
 [E,B,] | [F,A,]3 [F,A,] [F,A,]2 [C,B,]2 | [F,C]2 [D,F,]2 [C,G,]3 [C,B,] | (A,4 C2) [F,B,]2 | %16
 [F,A,]6 z [F,C] | (C4 A,2) [F,D]2 | [F,C]6 z [F,A,] | A,6 [A,,C]2 | [B,,B,]6 [B,,D]2 | %21
 [C,C]4 [C,B,]4 | [F,,A,]8 |] %23
V:4
 x8 | x8 | x8 | x8 | x8 | x8 | x8 | x8 | x8 | x8 | x8 | x7 || x | x8 | x8 | F,6 x2 | x8 | F,6 x2 | %18
 x8 | (F,4 D,2) x2 | x8 | x8 | x8 |] %23

